assets/Club suit/Flat/club_suit_flat.svg

<svg width="32" height="32" viewBox="0 0 32 32" fill="none" xmlns="http://www.w3.org/2000/svg">
<path d="M23.6195 23.4264C27.0671 23.2563 29.8619 20.4848 29.9945 17.1029C30.1475 13.3309 27.0773 10.2292 23.2727 10.2292H23.2625C22.8851 10.2292 22.6097 9.90902 22.6607 9.54883C22.7219 9.1386 22.7423 8.71835 22.7219 8.27811C22.5485 4.87625 19.723 2.13477 16.255 2.0047C12.4198 1.86462 9.26794 4.87626 9.26794 8.59829C9.26794 8.91847 9.28834 9.23866 9.33934 9.54883C9.39034 9.90902 9.09454 10.2092 8.73754 10.2092H8.72734C4.92271 10.2092 1.85248 13.3109 2.00548 17.0829C2.13808 20.4748 4.93291 23.2363 8.38053 23.4064C10.3798 23.5064 12.2056 22.746 13.501 21.4653C13.6744 21.2952 13.96 21.4153 13.96 21.6454V22.9061C13.96 25.0072 12.2464 26.7182 10.1043 26.7582H10.0737C9.16594 26.7582 8.38053 27.4586 8.36013 28.3491C8.33973 29.2596 9.09454 30 10.0125 30H10.0227H10.1043H14.8678H17.1016H21.8651H21.9467H21.9569C22.6709 30 23.3237 29.5598 23.5277 28.8994C23.8847 27.7788 23.0381 26.7582 21.9569 26.7582H21.8753C19.7434 26.7182 18.0196 25.0072 18.0196 22.9061V21.6454C18.0196 21.4053 18.3154 21.2952 18.4786 21.4653C19.8046 22.7661 21.6202 23.5265 23.6195 23.4264Z" fill="#212121"/>
</svg>

<svg xmlns="http://www.w3.org/2000/svg" width="32" height="32" fill="none"><path fill="#212121" d="M23.62 23.426c3.447-.17 6.242-2.941 6.374-6.323.154-3.772-2.917-6.874-6.721-6.874h-.01a.596.596 0 0 1-.602-.68c.06-.41.081-.83.06-1.27-.172-3.403-2.998-6.144-6.466-6.274-3.835-.14-6.987 2.871-6.987 6.593 0 .32.02.64.071.95.051.361-.244.661-.601.661h-.01c-3.805 0-6.876 3.102-6.723 6.874.133 3.392 2.928 6.153 6.376 6.323 1.999.1 3.825-.66 5.12-1.94.173-.17.459-.05.459.18v1.26c0 2.101-1.714 3.812-3.856 3.852h-.03c-.908 0-1.693.7-1.714 1.591-.02.91.735 1.651 1.652 1.651h11.945c.714 0 1.367-.44 1.57-1.1.358-1.121-.489-2.142-1.57-2.142h-.082c-2.132-.04-3.855-1.75-3.855-3.852v-1.26c0-.24.295-.35.459-.18a6.804 6.804 0 0 0 5.14 1.96Z"/></svg>
